Other-Icons/16x16-el_light/places/folder-tar.svg

<svg xmlns="http://www.w3.org/2000/svg" viewBox="0 0 16 16"><path d="M2 2v12h12V2H2zm1 1h4v1h1V3h5v10H3V3zm5 1v1h1V4H8zm0 1H7v1h1V5zm0 1v1h1V6H8zm0 1H7v1h1V7zm0 1v1H7v1h2V8H8z" fill="#6e6e6e" color="#4d4d4d"/></svg>

<?xml version="1.0" encoding="UTF-8" standalone="no"?>
<svg
   xmlns:dc="http://purl.org/dc/elements/1.1/"
   xmlns:cc="http://creativecommons.org/ns#"
   xmlns:rdf="http://www.w3.org/1999/02/22-rdf-syntax-ns#"
   xmlns:svg="http://www.w3.org/2000/svg"
   xmlns="http://www.w3.org/2000/svg"
   xmlns:sodipodi="http://sodipodi.sourceforge.net/DTD/sodipodi-0.dtd"
   xmlns:inkscape="http://www.inkscape.org/namespaces/inkscape"
   viewBox="0 0 16 16"
   version="1.1"
   id="svg6"
   sodipodi:docname="folder-tar.svg"
   inkscape:version="0.92.4 5da689c313, 2019-01-14">
  <metadata
     id="metadata10">
    <rdf:RDF>
      <cc:Work
         rdf:about="">
        <dc:format>image/svg+xml</dc:format>
        <dc:type
           rdf:resource="http://purl.org/dc/dcmitype/StillImage" />
      </cc:Work>
    </rdf:RDF>
  </metadata>
  <sodipodi:namedview
     pagecolor="#ffffff"
     bordercolor="#666666"
     borderopacity="1"
     objecttolerance="10"
     gridtolerance="10"
     guidetolerance="10"
     inkscape:pageopacity="0"
     inkscape:pageshadow="2"
     inkscape:window-width="640"
     inkscape:window-height="506"
     id="namedview8"
     showgrid="false"
     inkscape:zoom="14.75"
     inkscape:cx="8"
     inkscape:cy="8"
     inkscape:window-x="0"
     inkscape:window-y="26"
     inkscape:window-maximized="0"
     inkscape:current-layer="svg6" />
  <defs
     id="defs3051">
    <style
       type="text/css"
       id="current-color-scheme">
      .ColorScheme-Text {
        color:#4d4d4d;
      }
      </style>
  </defs>
  <path
     style="fill:#6e6e6e;fill-opacity:1;stroke:none"
     d="M 2 2 L 2 14 L 14 14 L 14 2 L 2 2 z M 3 3 L 7 3 L 7 4 L 8 4 L 8 3 L 13 3 L 13 13 L 3 13 L 3 3 z M 8 4 L 8 5 L 9 5 L 9 4 L 8 4 z M 8 5 L 7 5 L 7 6 L 8 6 L 8 5 z M 8 6 L 8 7 L 9 7 L 9 6 L 8 6 z M 8 7 L 7 7 L 7 8 L 8 8 L 8 7 z M 8 8 L 8 9 L 7 9 L 7 10 L 9 10 L 9 8 L 8 8 z "
     class="ColorScheme-Text"
     id="path4" />
</svg>
